X: 10361
Q: "Allegretto"
M: 2/4
L: 1/16
K: A
c> d c> A | B> c B> A G> F E2 | A2 c> A e3 e |
e> ^d e> d e2 E2 | d> c d> c d2 E> d | c> d c> B
(A>B) A> G | F> G A> B G> F E2 | e> ^d e> d e2 E2 |
d> c d> c d2 HE> d | (c>d) c> B (A>B) A> G | (F>G) (A>B) HE4 |



